X:619
T:Maiden Moor
C:Brian Jenkins, 1982
L:1/4
M:2/2
R:Reel
S:Colin Hume's website,  colinhume.com  - chords can also be printed below the stave.
Q:1/2=112
K:D
FE | "D"D2 D>E | "/"FA2^G | "G"=G>F GA | "Em"Bd- "Bm"df |\
"F#m"a>b af | "Bm"ed BF | "Em"E>D EF | "A"A2 FE |
"D"D2 D>E | "/"FA2^G | "G"=G2 G>A | "Em"Bd- "Bm"df |\
"F#m"a>f "Bm"ed | "Em"BA "Bm"FD | "Em"E>D "A"B,A, | "D"D2 GA |
"G"B2 B>A | "/"Bd2B | "D"A>B AF | "Bm"ED "F#m"FA |\
"G"B>c dB | "D/F#"Ad fa | "Em"b2 e>f | "A"e2 FE |
"D"D2 D>E | "/"FA2D | "G"G>F GA | "Em"Bd ed |\
"A"f>e "Bm"dB | "F#m"AB "A"FE | "D"D2 "G"D>E | "D"D2 |]

